jsapp/svg-icons/qt-range.svg

<svg height="642" viewBox="0 0 642 642" width="642" xmlns="http://www.w3.org/2000/svg"><g fill="#000" fill-rule="nonzero"><path d="m173.39 460.06h-54.08v-220.7l-51.42 1.14v-39l105.5-18.85z"/><path d="m314.69 460.06h-53.51v-49.13h53.51z"/><path d="m418.09 460.06h-53.51v-49.13h53.51z"/><path d="m574.24 460.06h-54.08v-220.7l-51.42 1.14v-39l105.5-18.85z"/></g></svg>

<svg id="Layer_1" data-name="Layer 1" xmlns="http://www.w3.org/2000/svg" viewBox="0 0 642 642"><path d="M173.39,460.06H119.31V239.36L67.89,240.5v-39l105.5-18.85Z"/><path d="M314.69,460.06H261.18V410.93h53.51Z"/><path d="M418.09,460.06H364.58V410.93h53.51Z"/><path d="M574.24,460.06H520.16V239.36l-51.42,1.14v-39l105.5-18.85Z"/></svg>
